svg/wheelchair.svg

<svg xmlns="http://www.w3.org/2000/svg" viewBox="0 0 24 24"><path d="m14 16 1.32 1.76C14.32 19.68 12.31 21 10 21c-3.31 0-6-2.69-6-6 0-2.43 1.46-4.5 3.55-5.45l.21 2.17C6.71 12.44 6 13.63 6 15c0 2.21 1.79 4 4 4 1.86 0 3.41-1.28 3.86-3zm5.55.11-1.25.62L15.5 13h-4.59l-.2-2H14V9h-3.5l-.3-3c1.01-.12 1.8-.96 1.8-2a2 2 0 1 0-4 0v.1L9.1 15h5.4l3.2 4.27 2.75-1.37z"/></svg>

<svg xmlns="http://www.w3.org/2000/svg" id="mdi-wheelchair" viewBox="0 0 24 24"><path d="M14 16L15.32 17.76C14.32 19.68 12.31 21 10 21C6.69 21 4 18.31 4 15C4 12.57 5.46 10.5 7.55 9.55L7.76 11.72C6.71 12.44 6 13.63 6 15C6 17.21 7.79 19 10 19C11.86 19 13.41 17.72 13.86 16H14M19.55 16.11L18.3 16.73L15.5 13H10.91L10.71 11H14V9H10.5L10.2 6C11.21 5.88 12 5.04 12 4C12 2.9 11.11 2 10 2S8 2.9 8 4C8 4.03 8 4.07 8 4.1H8L9.1 15H14.5L17.7 19.27L20.45 17.9L19.55 16.11Z" /></svg>
